X:1
T: Petticoat Loose
C:
R:Jig
Q:180
K:Am
M:6/8
L:1/16
|:A2|G2E2E2 c2E2E2|G2F2G2 G2c2A2|G2E2E2 c2E2E2|A6 ABc2A2|
G2E2E2 c2E2E2|c2d2e2 e2a2g2|f2d2e2 c2A2G2|1E2A2A2 ABc2A2:|2E2A2A2 A4^f2|
g6 g2e2d2|c2A2A2 B2c2d2|e2a2a2 a2g2e2|e2d2d2 d4^f2|
g2a2f2 g2e2d2|c2A2A2 B2c2d2|e2fed2 c2A2G2|1E2A2A2 A4^f2:|2E2A2A2A4||
